src/actions/symbolic/ephy-bookmarks-symbolic.svg

<svg width="16" height="16" version="1.1" xmlns="http://www.w3.org/2000/svg">
 <path d="m4.8008 0s-0.43146-0.012793-0.87695 0.22852c-0.44549 0.24131-0.92383 0.89765-0.92383 1.6387v12.133a1.0001 1.0001 0 0 0 1.5449 0.83789l3.4551-2.2461 3.4551 2.2461a1.0001 1.0001 0 0 0 1.5449-0.83789v-12.133s0.01489-0.40654-0.19141-0.85352c-0.2063-0.44698-0.84826-1.0137-1.6094-1.0137h-6.3984zm0 1h6.3984c0.8 0 0.80078 0.86719 0.80078 0.86719v12.133l-4-2.5996-4 2.5996v-12.133c0-0.86667 0.80078-0.86719 0.80078-0.86719z" color="#000000" color-rendering="auto" dominant-baseline="auto" fill="#363636" image-rendering="auto" shape-rendering="auto" solid-color="#000000" style="font-feature-settings:normal;font-variant-alternates:normal;font-variant-caps:normal;font-variant-ligatures:normal;font-variant-numeric:normal;font-variant-position:normal;isolation:auto;mix-blend-mode:normal;shape-padding:0;text-decoration-color:#000000;text-decoration-line:none;text-decoration-style:solid;text-indent:0;text-orientation:mixed;text-transform:none;white-space:normal"/>
</svg>

<svg xmlns="http://www.w3.org/2000/svg" width="16" height="16">
    <path fill="#050505" d="M4.8 0s-.43-.013-.876.229C3.478.469 3 1.126 3 1.867V14a1 1 0 0 0 1.545.838L8 12.592l3.455 2.246A1 1 0 0 0 13 14V1.867s.015-.406-.191-.853C12.602.567 11.96 0 11.199 0H4.801zm0 1h6.4c.8 0 .8.867.8.867V14l-4-2.6L4 14V1.867C4 1.001 4.8 1 4.8 1z" color="#000" opacity=".7" style="font-feature-settings:normal;font-variant-alternates:normal;font-variant-caps:normal;font-variant-ligatures:normal;font-variant-numeric:normal;font-variant-position:normal;isolation:auto;mix-blend-mode:normal;shape-padding:0;text-decoration-color:#000;text-decoration-line:none;text-decoration-style:solid;text-indent:0;text-orientation:mixed;text-transform:none;white-space:normal"/>
</svg>
